svg/blood_pressure_negative.svg

<svg width="48" height="48" viewBox="0 0 48 48" fill="none" xmlns="http://www.w3.org/2000/svg">
<path fill-rule="evenodd" clip-rule="evenodd" d="M0 0V47.9994H47.9994V0H0ZM14.5658 3.99995C18.5358 4.00225 22.1747 6.21122 24.0077 9.73228C25.8387 6.21252 29.4746 4.00375 33.4426 3.99995C39.3245 3.99975 44.0934 8.76679 44.0934 14.6478C44.0885 24.0017 31.4546 31.5506 23.9407 43.9995C22.9767 42.3915 21.9207 40.8815 20.8277 39.4275C20.8297 39.4245 20.8317 39.4225 20.8337 39.4195C21.1627 38.7515 21.4017 38.4765 21.6087 37.6165C21.8677 36.7685 21.9987 35.8866 21.9997 34.9996C21.9997 30.0286 17.9708 25.9997 12.9998 25.9997C11.8639 25.9997 10.7799 26.2187 9.77918 26.6037C9.50158 26.2747 9.21139 25.9427 8.94719 25.6167H16.7068L21.0407 16.9668L25.5157 33.3116C29.1476 28.2096 29.3596 27.6397 31.6226 24.2297H35.0366C36.6945 24.2417 36.7575 21.7647 35.0366 21.6947H30.3826L26.1837 28.3706C25.1487 23.9187 21.2927 10.5659 21.2927 10.5659C20.8757 11.1069 17.4258 19.8298 15.1428 23.0797H7.02921C5.13934 20.3257 3.92555 17.5868 3.91795 14.6478C3.91775 8.76679 8.68479 3.99995 14.5658 3.99995ZM12.9998 26.2847C17.8128 26.2847 21.7147 30.1866 21.7147 34.9996C21.7137 35.8585 21.5857 36.7115 21.3357 37.5325C21.1357 38.3645 20.9047 38.6315 20.5857 39.2785C19.0418 42.0165 16.1428 43.7125 12.9998 43.7145C8.1873 43.7145 4.28515 39.8125 4.28515 34.9996C4.28515 30.1866 8.1873 26.2847 12.9998 26.2847ZM12.9998 29.1246C9.75518 29.1246 7.12491 31.7546 7.12491 34.9996H8.49989C8.49989 32.5146 10.5149 30.4996 12.9998 30.4996C15.4848 30.4996 17.4998 32.5146 17.4998 34.9996H18.8748C18.8748 31.7546 16.2448 29.1246 12.9998 29.1246ZM9.75188 32.0696L11.6799 36.4175C11.4609 36.7045 11.3429 37.0545 11.3419 37.4155C11.3419 38.3305 12.0848 39.0725 12.9998 39.0715C13.9148 39.0725 14.6578 38.3305 14.6578 37.4155C14.6588 36.4995 13.9158 35.7565 12.9998 35.7576C12.9018 35.7576 12.8038 35.7656 12.7068 35.7846L9.75188 32.0696Z" fill="#333333"/>
</svg>

<?xml version="1.0" encoding="UTF-8" standalone="no"?>
<!-- Created with Inkscape (http://www.inkscape.org/) -->
<svg id="svg8" xmlns:rdf="http://www.w3.org/1999/02/22-rdf-syntax-ns#" xmlns="http://www.w3.org/2000/svg" xmlns:osb="http://www.openswatchbook.org/uri/2009/osb" height="48" width="48" version="1.1" xmlns:cc="http://creativecommons.org/ns#" viewBox="0 0 12.7 12.7" xmlns:dc="http://purl.org/dc/elements/1.1/">
 <title id="title4753">UIO-icon</title>
 <metadata id="metadata5">
  <rdf:RDF>
   <cc:Work rdf:about="">
    <dc:format>image/svg+xml</dc:format>
    <dc:type rdf:resource="http://purl.org/dc/dcmitype/StillImage"/>
    <dc:title>UIO-icon</dc:title>
    <dc:creator>
     <cc:Agent>
      <dc:title>Joaquín Urbano</dc:title>
     </cc:Agent>
    </dc:creator>
    <dc:rights>
     <cc:Agent>
      <dc:title>GPL</dc:title>
     </cc:Agent>
    </dc:rights>
   </cc:Work>
  </rdf:RDF>
 </metadata>
 <g id="layer1" transform="translate(0,-284.3)">
  <path id="rect4803" d="m0 0v48h48v-48h-48zm14.566 4c3.97 0.0023 7.609 2.2113 9.442 5.7324 1.831-3.5198 5.467-5.7286 9.435-5.7324 5.882-0.0002 10.651 4.7669 10.651 10.648-0.005 9.354-12.639 16.903-20.153 29.352-0.964-1.608-2.02-3.118-3.113-4.572 0.002-0.003 0.004-0.005 0.006-0.008 0.329-0.668 0.568-0.943 0.775-1.803 0.259-0.848 0.39-1.73 0.391-2.617 0-4.971-4.029-9-9-9-1.136 0-2.22 0.219-3.2207 0.604-0.2776-0.329-0.5678-0.661-0.832-0.987h7.7597l4.334-8.65 4.475 16.345c3.632-5.102 3.844-5.672 6.107-9.082h3.414c1.658 0.012 1.721-2.465 0-2.535h-4.654l-4.199 6.676c-1.035-4.452-4.891-17.805-4.891-17.805-0.417 0.541-3.867 9.264-6.15 12.514h-8.1137c-1.8899-2.754-3.1037-5.493-3.1113-8.432-0.0002-5.8811 4.7669-10.648 10.648-10.648zm-1.566 22.285c4.813 0 8.715 3.902 8.715 8.715-0.001 0.859-0.129 1.712-0.379 2.533-0.2 0.832-0.431 1.099-0.75 1.746-1.544 2.738-4.443 4.434-7.586 4.436-4.8126 0-8.7148-3.902-8.7148-8.715s3.9022-8.715 8.7148-8.715zm0 2.84c-3.2447 0-5.875 2.63-5.875 5.875h1.375c0-2.485 2.015-4.5 4.5-4.5s4.5 2.015 4.5 4.5h1.375c0-3.245-2.63-5.875-5.875-5.875zm-3.248 2.945l1.928 4.348c-0.219 0.287-0.337 0.637-0.338 0.998 0 0.915 0.743 1.657 1.658 1.656 0.915 0.001 1.658-0.741 1.658-1.656 0.001-0.916-0.742-1.659-1.658-1.658-0.098 0-0.196 0.008-0.293 0.027l-2.955-3.715z" fill-rule="evenodd" transform="matrix(.26458 0 0 .26458 0 284.3)" fill="#333"/>
 </g>
</svg>
